src/images_karasa_jaga_svg/cmd/lc_formatallnotes.svg

<svg height="24" viewBox="0 0 24 24" width="24" xmlns="http://www.w3.org/2000/svg" xmlns:xlink="http://www.w3.org/1999/xlink"><radialGradient id="a" cx="7.517627" cy="21.388401" gradientTransform="matrix(1.454525 -.00000011 .00000011 1.6623143 .701621 935.35452)" gradientUnits="userSpaceOnUse" r="56"><stop offset=".0765" stop-color="#f3c300"/><stop offset=".1887" stop-color="#f7d21f"/><stop offset=".3467" stop-color="#fde446"/><stop offset=".4294" stop-color="#ffeb55"/><stop offset=".6882" stop-color="#ffeb55"/><stop offset=".7281" stop-color="#fee951"/><stop offset=".7641" stop-color="#fde446"/><stop offset=".7987" stop-color="#fadb34"/><stop offset=".8322" stop-color="#f7cf1a"/><stop offset=".8588" stop-color="#f3c300"/><stop offset=".9208" stop-color="#fbd400"/><stop offset=".9706" stop-color="#fd0"/></radialGradient><linearGradient id="b" gradientUnits="userSpaceOnUse" x1="69.908768" x2="98.520561" y1="976.15857" y2="1021.93744"><stop offset="0" stop-color="#fff" stop-opacity=".462094"/><stop offset=".5" stop-color="#fff"/><stop offset="1" stop-color="#fff" stop-opacity=".350181"/></linearGradient><filter id="c" color-interpolation-filters="sRGB" height="1.095956" width="1.096044" x="-.048022" y="-.047978"><feGaussianBlur stdDeviation="2.0935631"/></filter><g transform="matrix(.10774834 .13390784 -.13390784 .10774834 139.401305 -105.001569)"><g fill="none" stroke-linecap="round" stroke-linejoin="round"><path d="m11.689634 971.95837h68.832936v68.85813h-68.832936z" opacity=".15" stroke="#787878" stroke-width="15"/><path d="m11.731468 972.00018h68.630532v68.72582h-68.630532z" filter="url(#c)" opacity=".534" stroke="#737373" stroke-width="8"/><path d="m11.6362 972.00018h68.7258v68.72582h-68.7258z" stroke="#e3ad00" stroke-width="5"/></g><path d="m11.6362 972.00018h68.7258v68.72582h-68.7258z" fill="#fff"/><path d="m14.625873 974.80127h62.851367v62.99133h-62.851367z" fill="url(#a)"/><path d="m11.6362 974.00018h68.7258v23.27242h-68.7258z" fill="url(#b)"/><g fill="#fff" fill-opacity=".756881"><path d="m62.255927 1010.1989v-2.6404z"/><path d="m67.14946 968.62119v-2.6404z"/></g></g><g transform="matrix(.171875 0 0 .171875 8.151027 -156.87474)"><g fill="none" stroke-linecap="round" stroke-linejoin="round"><path d="m11.689634 971.95837h68.832936v68.85813h-68.832936z" opacity=".15" stroke="#787878" stroke-width="15"/><path d="m11.731468 972.00018h68.630532v68.72582h-68.630532z" filter="url(#c)" opacity=".534" stroke="#737373" stroke-width="8"/><path d="m11.6362 972.00018h68.7258v68.72582h-68.7258z" stroke="#e3ad00" stroke-width="5"/></g><path d="m11.6362 972.00018h68.7258v68.72582h-68.7258z" fill="#fff"/><path d="m14.625873 974.80127h62.851367v62.99133h-62.851367z" fill="url(#a)"/><path d="m11.6362 974.00018h68.7258v23.27242h-68.7258z" fill="url(#b)"/><g fill="#fff" fill-opacity=".756881"><path d="m62.255927 1010.1989v-2.6404z"/><path d="m67.14946 968.62119v-2.6404z"/></g></g></svg>

<?xml version="1.0" encoding="UTF-8" standalone="no"?>
<svg
   xmlns:dc="http://purl.org/dc/elements/1.1/"
   xmlns:cc="http://creativecommons.org/ns#"
   xmlns:rdf="http://www.w3.org/1999/02/22-rdf-syntax-ns#"
   xmlns:svg="http://www.w3.org/2000/svg"
   xmlns="http://www.w3.org/2000/svg"
   xmlns:xlink="http://www.w3.org/1999/xlink"
   xmlns:sodipodi="http://sodipodi.sourceforge.net/DTD/sodipodi-0.dtd"
   xmlns:inkscape="http://www.inkscape.org/namespaces/inkscape"
   height="128"
   viewBox="0 0 128 128"
   width="128"
   version="1.1"
   id="svg125"
   sodipodi:docname="lc_formatallnotes.svg"
   inkscape:version="0.92.4 (unknown)"
   inkscape:export-filename="/home/rizmut/Dokumen/Rizmut/Github/libreoffice-style-karasa-jaga/build/images_karasa_jaga/cmd/lc_formatallnotes.png"
   inkscape:export-xdpi="16.5"
   inkscape:export-ydpi="16.5">
  <metadata
     id="metadata131">
    <rdf:RDF>
      <cc:Work
         rdf:about="">
        <dc:format>image/svg+xml</dc:format>
        <dc:type
           rdf:resource="http://purl.org/dc/dcmitype/StillImage" />
        <dc:title></dc:title>
      </cc:Work>
    </rdf:RDF>
  </metadata>
  <defs
     id="defs129">
    <radialGradient
       inkscape:collect="always"
       xlink:href="#a"
       id="radialGradient1030"
       gradientUnits="userSpaceOnUse"
       gradientTransform="matrix(1.454525,-1.0796451e-7,1.0743279e-7,1.6623143,0.70162115,935.35452)"
       cx="7.5176272"
       cy="21.388401"
       fx="7.5176272"
       fy="21.388401"
       r="56" />
    <linearGradient
       inkscape:collect="always"
       xlink:href="#b"
       id="linearGradient1032"
       gradientUnits="userSpaceOnUse"
       gradientTransform="translate(0,46)"
       x1="69.9087669366"
       y1="930.15858845732"
       x2="98.52056150516"
       y2="975.93744654002" />
    <radialGradient
       inkscape:collect="always"
       xlink:href="#a"
       id="radialGradient921"
       gradientUnits="userSpaceOnUse"
       gradientTransform="matrix(1.454525,-1.0796451e-7,1.0743279e-7,1.6623143,0.70162115,935.35452)"
       cx="7.5176272"
       cy="21.388401"
       fx="7.5176272"
       fy="21.388401"
       r="56" />
    <linearGradient
       inkscape:collect="always"
       xlink:href="#b"
       id="linearGradient923"
       gradientUnits="userSpaceOnUse"
       gradientTransform="translate(0,46)"
       x1="69.9087669366"
       y1="930.15858845732"
       x2="98.52056150516"
       y2="975.93744654002" />
  </defs>
  <sodipodi:namedview
     pagecolor="#ffffff"
     bordercolor="#666666"
     borderopacity="1"
     objecttolerance="10"
     gridtolerance="10"
     guidetolerance="10"
     inkscape:pageopacity="0"
     inkscape:pageshadow="2"
     inkscape:window-width="1366"
     inkscape:window-height="706"
     id="namedview127"
     showgrid="true"
     inkscape:zoom="1.84375"
     inkscape:cx="12.071911"
     inkscape:cy="66.533794"
     inkscape:window-x="0"
     inkscape:window-y="0"
     inkscape:window-maximized="1"
     inkscape:current-layer="g919">
    <inkscape:grid
       type="xygrid"
       id="grid955"
       spacingx="5.8181"
       spacingy="5.8181"
       empspacing="1" />
  </sodipodi:namedview>
  <radialGradient
     id="a"
     cx="7.5176272"
     cy="21.388401"
     gradientTransform="matrix(1.454525,-1.0796451e-7,1.0743279e-7,1.6623143,0.70162115,935.35452)"
     gradientUnits="userSpaceOnUse"
     r="56"
     fx="7.5176272"
     fy="21.388401">
    <stop
       offset=".0765"
       stop-color="#f3c300"
       id="stop2" />
    <stop
       offset=".1887"
       stop-color="#f7d21f"
       id="stop4" />
    <stop
       offset=".3467"
       stop-color="#fde446"
       id="stop6" />
    <stop
       offset=".4294"
       stop-color="#ffeb55"
       id="stop8" />
    <stop
       offset=".6882"
       stop-color="#ffeb55"
       id="stop10" />
    <stop
       offset=".7281"
       stop-color="#fee951"
       id="stop12" />
    <stop
       offset=".7641"
       stop-color="#fde446"
       id="stop14" />
    <stop
       offset=".7987"
       stop-color="#fadb34"
       id="stop16" />
    <stop
       offset=".8322"
       stop-color="#f7cf1a"
       id="stop18" />
    <stop
       offset=".8588"
       stop-color="#f3c300"
       id="stop20" />
    <stop
       offset=".9208"
       stop-color="#fbd400"
       id="stop22" />
    <stop
       offset=".9706"
       stop-color="#fd0"
       id="stop24" />
  </radialGradient>
  <linearGradient
     id="b"
     gradientUnits="userSpaceOnUse"
     x1="69.9087669366"
     x2="98.52056150516"
     y1="930.15858845732"
     y2="975.93744654002"
     gradientTransform="translate(0,46)">
    <stop
       offset="0"
       stop-color="#fff"
       stop-opacity=".462094"
       id="stop27" />
    <stop
       offset=".5"
       stop-color="#fff"
       id="stop29" />
    <stop
       offset="1"
       stop-color="#fff"
       stop-opacity=".350181"
       id="stop31" />
  </linearGradient>
  <filter
     id="c"
     color-interpolation-filters="sRGB"
     height="1.095956"
     width="1.096044"
     x="-.048022"
     y="-.047978">
    <feGaussianBlur
       stdDeviation="2.0935631"
       id="feGaussianBlur34" />
  </filter>
  <linearGradient
     id="d"
     gradientUnits="userSpaceOnUse"
     x1="304.88663"
     x2="345.62039"
     xlink:href="#e"
     y1="385.86127"
     y2="384.62384" />
  <linearGradient
     id="e">
    <stop
       offset="0"
       stop-color="#765c44"
       id="stop38" />
    <stop
       offset="1"
       stop-color="#765c44"
       stop-opacity="0"
       id="stop40" />
  </linearGradient>
  <linearGradient
     id="f"
     gradientUnits="userSpaceOnUse"
     spreadMethod="reflect"
     x1="31.60625"
     x2="34.575107"
     y1="13.510336"
     y2="13.510336">
    <stop
       offset="0"
       stop-color="#fff"
       id="stop43" />
    <stop
       offset="1"
       stop-color="#790000"
       stop-opacity="0"
       id="stop45" />
  </linearGradient>
  <radialGradient
     id="g"
     cx="84.903702"
     cy="-130.14005"
     gradientTransform="matrix(0.04899496,-0.04899496,0.04899496,0.04899496,27.763383,298.48358)"
     gradientUnits="userSpaceOnUse"
     r="57.039597"
     xlink:href="#h" />
  <linearGradient
     id="h">
    <stop
       offset="0"
       stop-color="#3a0b02"
       id="stop49" />
    <stop
       offset="1"
       stop-color="#a21d07"
       stop-opacity=".382353"
       id="stop51" />
  </linearGradient>
  <radialGradient
     id="i"
     cx="2.720703"
     cy="-66.273438"
     gradientTransform="matrix(0.04899496,-0.04899496,0.04899496,0.04899496,27.763383,298.48358)"
     gradientUnits="userSpaceOnUse"
     r="57.039597"
     xlink:href="#h" />
  <radialGradient
     id="j"
     cx="51.991096"
     cy="-78.028419"
     gradientTransform="matrix(0.04899496,-0.04899496,0.04899496,0.04899496,27.763383,298.48358)"
     gradientUnits="userSpaceOnUse"
     r="57.039597"
     xlink:href="#h" />
  <linearGradient
     id="k"
     gradientTransform="scale(1.0975951,0.9110828)"
     gradientUnits="userSpaceOnUse"
     x1="26.091133"
     x2="31.500689"
     xlink:href="#e"
     y1="14.856744"
     y2="14.856744" />
  <filter
     id="l"
     height="1.277481"
     width="1.279832"
     x="-.139916"
     y="-.138741">
    <feGaussianBlur
       stdDeviation=".28784801"
       id="feGaussianBlur57" />
  </filter>
  <linearGradient
     id="m"
     gradientUnits="userSpaceOnUse"
     spreadMethod="reflect"
     x1="88.60625"
     x2="91.575107"
     y1="13.510336"
     y2="13.510336">
    <stop
       offset="0"
       stop-color="#ff8787"
       id="stop60" />
    <stop
       offset="1"
       stop-color="#ff8787"
       stop-opacity="0"
       id="stop62" />
  </linearGradient>
  <radialGradient
     id="n"
     cx="50.424522"
     cy="-81.945961"
     gradientTransform="matrix(0.04899496,-0.04899496,0.04899496,0.04899496,27.763382,298.48358)"
     gradientUnits="userSpaceOnUse"
     r="50.15279">
    <stop
       offset="0"
       stop-color="#db3424"
       id="stop65" />
    <stop
       offset="1"
       stop-color="#b32016"
       id="stop67" />
  </radialGradient>
  <linearGradient
     id="o"
     gradientTransform="matrix(0.04899496,-0.04899496,0.04899496,0.04899496,27.763383,298.48358)"
     gradientUnits="userSpaceOnUse"
     x1="50.06789"
     x2="59.441998"
     y1="-154.40843"
     y2="-71.617722">
    <stop
       offset="0"
       stop-color="#fff"
       id="stop70" />
    <stop
       offset="1"
       stop-color="#fcf3f3"
       stop-opacity="0"
       id="stop72" />
  </linearGradient>
  <g
     transform="translate(0 -924.36216)"
     id="g123">
    <g
       id="g919"
       transform="matrix(-1,0,0,1,128,0)">
      <g
         transform="rotate(-38.821739,22.032216,956.43575)"
         id="g1028">
        <path
           style="opacity:0.15;fill:none;stroke:#787878;stroke-width:15;stroke-linecap:round;stroke-linejoin:round"
           inkscape:connector-curvature="0"
           d="M 11.689634,971.95837 H 80.52257 v 68.85813 H 11.689634 Z"
           id="path1012"
           sodipodi:nodetypes="ccccc" />
        <path
           style="opacity:0.53399999;fill:none;stroke:#737373;stroke-width:8;stroke-linecap:round;stroke-linejoin:round;filter:url(#c)"
           inkscape:connector-curvature="0"
           d="M 11.731468,972.00018 H 80.362 V 1040.726 H 11.731468 Z"
           id="path1014"
           sodipodi:nodetypes="ccccc" />
        <path
           style="fill:none;stroke:#e3ad00;stroke-width:5;stroke-linecap:round;stroke-linejoin:round"
           inkscape:connector-curvature="0"
           d="M 11.6362,972.00018 H 80.362 V 1040.726 H 11.6362 Z"
           id="path1016"
           sodipodi:nodetypes="ccccc" />
        <path
           id="path1018"
           d="M 11.6362,972.00018 H 80.362 V 1040.726 H 11.6362 Z"
           inkscape:connector-curvature="0"
           style="fill:#ffffff"
           sodipodi:nodetypes="ccccc" />
        <path
           id="path1020"
           d="M 14.625873,974.80127 H 77.47724 v 62.99133 H 14.625873 Z"
           inkscape:connector-curvature="0"
           style="fill:url(#radialGradient1030)"
           sodipodi:nodetypes="ccccc" />
        <path
           id="path1022"
           d="M 11.6362,974.00018 H 80.362 V 997.2726 H 11.6362 Z"
           style="fill:url(#linearGradient1032)"
           inkscape:connector-curvature="0"
           sodipodi:nodetypes="ccccc" />
        <path
           id="path1024"
           d="m 62.255927,1010.1989 v -2.6404 z"
           inkscape:connector-curvature="0"
           style="fill:#ffffff;fill-opacity:0.756881"
           sodipodi:nodetypes="ccc" />
        <path
           id="path1026"
           d="m 67.14946,968.62119 v -2.6404 z"
           inkscape:connector-curvature="0"
           style="fill:#ffffff;fill-opacity:0.756881"
           sodipodi:nodetypes="ccc" />
      </g>
      <g
         id="g953"
         transform="matrix(-1,0,0,1,92.212204,0)">
        <path
           sodipodi:nodetypes="ccccc"
           id="path75"
           d="M 11.689634,971.95837 H 80.52257 v 68.85813 H 11.689634 Z"
           inkscape:connector-curvature="0"
           style="opacity:0.15;fill:none;stroke:#787878;stroke-width:15;stroke-linecap:round;stroke-linejoin:round" />
        <path
           sodipodi:nodetypes="ccccc"
           id="path77"
           d="M 11.731468,972.00018 H 80.362 V 1040.726 H 11.731468 Z"
           inkscape:connector-curvature="0"
           style="opacity:0.53399999;fill:none;stroke:#737373;stroke-width:8;stroke-linecap:round;stroke-linejoin:round;filter:url(#c)" />
        <path
           sodipodi:nodetypes="ccccc"
           id="path79"
           d="M 11.6362,972.00018 H 80.362 V 1040.726 H 11.6362 Z"
           inkscape:connector-curvature="0"
           style="fill:none;stroke:#e3ad00;stroke-width:5;stroke-linecap:round;stroke-linejoin:round" />
        <path
           sodipodi:nodetypes="ccccc"
           style="fill:#ffffff"
           inkscape:connector-curvature="0"
           d="M 11.6362,972.00018 H 80.362 V 1040.726 H 11.6362 Z"
           id="path83" />
        <path
           sodipodi:nodetypes="ccccc"
           style="fill:url(#radialGradient921)"
           inkscape:connector-curvature="0"
           d="M 14.625873,974.80127 H 77.47724 v 62.99133 H 14.625873 Z"
           id="path85" />
        <path
           sodipodi:nodetypes="ccccc"
           inkscape:connector-curvature="0"
           style="fill:url(#linearGradient923)"
           d="M 11.6362,974.00018 H 80.362 V 997.2726 H 11.6362 Z"
           id="path87" />
        <path
           sodipodi:nodetypes="ccc"
           style="fill:#ffffff;fill-opacity:0.756881"
           inkscape:connector-curvature="0"
           d="m 62.255927,1010.1989 v -2.6404 z"
           id="path89" />
        <path
           sodipodi:nodetypes="ccc"
           style="fill:#ffffff;fill-opacity:0.756881"
           inkscape:connector-curvature="0"
           d="m 67.14946,968.62119 v -2.6404 z"
           id="path91" />
      </g>
    </g>
  </g>
</svg>
